X: 4756
T: Boys Of Bluehill, The
R: hornpipe
M: 4/4
K: Dmajor
LB4|:A3B AGFG|Addc d2 de|fagf egfe|dfed B2 dB|
A3B AGFG|Addc d2 de|fagf egfe|1 d2 z2 LB4:|2 d2 c2 d2 fg||
|:afdf a2 gf|efga b2 ag|fagf egfe|dfed B2 dB|
A3B AGFG|Addc d2 de|fagf egfe|1 d2 c2 d2 fg:|2 d2 z2 LB4||

